src/icons/status-inactive.svg

<svg xmlns="http://www.w3.org/2000/svg" width="512" height="512" viewBox="0 0 512 512">
    <path d="M328.7 311.5L268.2 255l-13.5-117-15 129.5h.4l-.4 1z"/>
    <path d="M256 69.5c-99.4 0-180 80.5-180 180s80.6 180 180 180 180-80.6 180-180-80.6-180-180-180zm0 335c-85.5 0-155-69.5-155-155s69.5-155 155-155 155 69.5 155 155-69.5 155-155 155z"/>
</svg>

<?xml version="1.0" encoding="UTF-8"?>
<svg width="512px" height="512px" viewBox="0 0 512 512" version="1.1" xmlns="http://www.w3.org/2000/svg" xmlns:xlink="http://www.w3.org/1999/xlink">
    <!-- Generator: Sketch 62 (91390) - https://sketch.com -->
    <title>status-inactive</title>
    <desc>Created with Sketch.</desc>
    <g id="status-inactive" stroke="none" stroke-width="1" fill="none" fill-rule="evenodd">
        <polygon id="Path" fill="#000000" fill-rule="nonzero" points="328.7 311.5 268.2 255 254.7 138 239.7 267.5 240.1 267.5 239.7 268.5"></polygon>
        <path d="M256,69.5 C156.6,69.5 76,150 76,249.5 C76,349 156.6,429.5 256,429.5 C355.4,429.5 436,348.9 436,249.5 C436,150.1 355.4,69.5 256,69.5 Z M256,404.5 C170.5,404.5 101,335 101,249.5 C101,164 170.5,94.5 256,94.5 C341.5,94.5 411,164 411,249.5 C411,335 341.5,404.5 256,404.5 Z" id="Shape" fill="#000000" fill-rule="nonzero"></path>
    </g>
</svg>
